X:21192 
T:TIM THE MARKET MAN (reel)
B:DMI.0690
Z:Nordberg/Black
R:reel
%Q:1/4=180
M:C|
L:1/8
K:C
z2|A2GE AGFE|A2GE G2EG|A3c BGGB|AddB cdec|
A2GE AGFE|A2GE G2EG|A3c BGGB|AddB c2cd||
efed efge|GAGE G2EG|A2GA BGGc|dedB c2cd|
eged efge|GAGE G2EG|A3c BGGc|dedB c4|]


%%vskip
P:Source version
A>AGE (3AcA GE|(3AcA GE G2 (3EFG|AA2c BGGB|AddB ccec|
A>AGE (3AcA GE|(3AcA GE G2 (3EFG|AA2c BGGB|AddB c2cd||
ee2d efg2|GAGE G2EG|AA2c BGGc|AddB c2cd|
(3efg ed efg2|GAGE G2(3EFG|AA2c BGGc|AddB c4|]
%%%

